svgs/thin/field-hockey-stick-ball.svg

<svg xmlns="http://www.w3.org/2000/svg" viewBox="0 0 512 512"><!-- Font Awesome Pro 6.0.0-alpha2 by @fontawesome - https://fontawesome.com License - https://fontawesome.com/license (Commercial License) --><path d="M432.054 352C387.858 352 351.999 387.832 351.999 432C351.999 476.166 387.858 512 432.054 512S511.999 476.166 511.999 432C511.999 387.832 476.249 352 432.054 352ZM432.054 496C396.733 496 367.999 467.289 367.999 432S396.733 368 432.054 368C467.312 368 495.999 396.711 495.999 432S467.312 496 432.054 496ZM497.733 23.08L471.116 5.355C465.683 1.734 459.538 0 453.46 0C443.237 0 433.202 4.908 427.023 14.006L166.605 397.406C152.892 416.971 129.344 419.95 115.237 411.898C99.737 403.164 95.105 387.611 95.944 375.975C96.767 364.777 100.101 360.832 112.452 343.115C127.624 321.355 122.327 291.434 100.616 276.227C69.104 254.115 40.911 277.97 33.882 288.088L24.085 302.148C10.273 321.949 2.058 345.127 0.358 369.121C-3.395 421.363 22.55 469.809 68.148 495.584C87.796 506.686 109.499 512 131.237 512C198.779 512 235.936 465.636 245.64 451.75L506.456 67.77C516.464 53.037 512.546 32.947 497.733 23.08ZM232.526 442.586C224.048 454.718 190.78 496 131.237 496C111.722 496 92.628 491.039 76.023 481.656C35.89 458.969 13.011 416.287 16.319 370.252C17.815 349.133 25.038 328.748 37.214 311.295L47.023 297.217C57.033 282.808 76.877 279.112 91.437 289.332C105.89 299.455 109.429 319.477 99.327 333.965C80.501 360.97 80.767 364.21 79.987 374.822C78.792 391.35 85.362 413.43 107.304 425.793C136.263 442.325 167.241 424.378 179.839 406.396L364.171 135.016L417.374 170.447L232.526 442.586ZM493.222 58.779L426.362 157.213L373.163 121.779L440.257 22.996C442.32 19.96 451.539 11.551 462.249 18.672L488.862 36.396C496.283 41.338 498.235 51.392 493.222 58.779Z"/></svg>

<svg xmlns="http://www.w3.org/2000/svg" viewBox="0 0 512 512"><!--! Font Awesome Pro 6.3.0 by @fontawesome - https://fontawesome.com License - https://fontawesome.com/license (Commercial License) Copyright 2023 Fonticons, Inc. --><path d="M432.1 351.9c-44.2 0-80.05 35.84-80.05 80.01c0 44.17 35.86 80.01 80.05 80.01s79.95-35.84 79.95-80.01C511.1 387.8 476.2 351.9 432.1 351.9zM432.1 496C396.7 496 368 467.3 368 432s28.73-64 64.05-64c35.26 0 63.95 28.71 63.95 64S467.3 496 432.1 496zM497.7 23.08l-26.62-17.72C465.7 1.734 459.5 0 453.5 0c-10.22 0-20.26 4.908-26.44 14.01L166.6 397.4c-13.71 19.56-37.26 22.58-51.37 14.53c-15.5-8.734-20.13-24.29-19.29-35.92c.8224-11.2 4.156-15.17 16.51-32.89c15.17-21.76 9.875-51.65-11.84-66.86c-31.51-22.11-59.71 1.717-66.73 11.83L24.09 302.1c-13.81 19.8-22.03 43.01-23.73 67c-3.754 52.24 22.19 100.7 67.79 126.5C87.8 506.7 109.6 512 131.3 512c67.54 0 104.6-46.41 114.3-60.29l260.8-383.9C516.5 53.04 512.5 32.95 497.7 23.08zM232.5 442.6C224 454.7 190.8 496 131.2 496c-19.52 0-38.61-4.961-55.21-14.34c-40.13-22.69-63.01-65.37-59.7-111.4c1.496-21.12 8.719-41.5 20.89-58.96l9.809-14.08c10.01-14.41 29.85-18.1 44.41-7.885c14.45 10.12 17.99 30.14 7.891 44.63c-18.83 27.01-18.56 30.25-19.34 40.86c-1.195 16.53 5.375 38.61 27.32 50.97c28.96 16.53 59.94-1.415 72.54-19.4l184.3-271.4l53.2 35.43L232.5 442.6zM493.2 58.78l-66.86 98.43L373.2 121.8l67.09-98.78c2.063-3.036 11.28-11.45 21.99-4.324l26.61 17.72C496.3 41.34 498.2 51.39 493.2 58.78z"/></svg>
